next-js/public/img/logo/logo-text_yana_caker.svg

<svg width="100" height="70" viewBox="0 0 90 45" fill="none" xmlns="http://www.w3.org/2000/svg">
<path d="M3.0897 18.7865H5.18351V15.888L7.60791 0H5.56921L5.15596 2.4154L4.10905 11.6744L2.9795 2.4154L2.5387 0H0.5L3.0897 15.888V18.7865Z" fill="#CF726D"/>
<path d="M10.0829 0L7.87889 18.7865H9.91759L10.138 16.8005H13.2236L13.4715 18.7865H15.5102L13.3062 0H10.0829ZM13.0032 14.8681H10.3859L11.6808 2.25438L13.0032 14.8681Z" fill="#CF726D"/>
<path d="M21.5293 16.2637L22.0527 18.7865H25.3863V0H23.2925V2.22754L23.5404 16.2637L20.8681 2.28121L20.3997 0H17.0662V18.7865H19.16V16.3442L18.8845 2.4154L21.5293 16.2637Z" fill="#CF726D"/>
<path d="M29.1312 0L26.9272 18.7865H28.9659L29.1863 16.8005H32.2719L32.5198 18.7865H34.5585L32.3545 0H29.1312ZM32.0515 14.8681H29.4342L30.7291 2.25438L32.0515 14.8681Z" fill="#CF726D"/>
<path d="M17.6086 38.8471C16.1484 40.8063 13.8067 42.0677 11.1068 42.0677C6.61611 42.0677 3.06215 38.5519 3.06215 34.231C3.06215 29.9102 6.61611 26.3944 11.1068 26.3944C13.7516 26.3944 16.0658 27.6021 17.5259 29.4807L19.1238 28.273C17.2504 25.965 14.3577 24.4621 11.1068 24.4621C5.51411 24.4621 0.968351 28.8366 0.968351 34.231C0.968351 39.6254 5.51411 44 11.1068 44C14.4679 44 17.4157 42.4434 19.2616 40.028L17.6086 38.8471Z" fill="#CF726D"/>
<path d="M22.3782 24.8378L20.1742 43.6243H22.2129L22.4333 41.6383H25.5189L25.7668 43.6243H27.8055L25.6015 24.8378H22.3782ZM25.2985 39.7059H22.6812L23.9761 27.0922L25.2985 39.7059Z" fill="#CF726D"/>
<path d="M29.3615 43.6243H31.4553V41.1284L31.3175 35.1167L35.1194 43.6243H37.2959L33.1358 34.3921L37.2959 24.8378H35.147L31.29 33.7211L31.4553 27.0922V24.8378H29.3615V43.6243Z" fill="#CF726D"/>
<path d="M47.3316 42.0677C44.6317 42.0677 42.3451 41.1015 40.8849 39.5449L55.7344 29.5613C53.9987 26.5286 50.6652 24.4621 46.8357 24.4621C41.2431 24.4621 36.6973 28.8366 36.6973 34.231C36.6973 39.6254 40.9951 44 47.3316 44C50.7478 44 53.613 42.6313 55.5966 39.8401L53.9436 38.6593C52.3457 41.021 50.0591 42.0677 47.3316 42.0677ZM38.7911 34.231C38.7911 29.9102 42.3451 26.3944 46.8357 26.3944C49.2601 26.3944 51.4366 27.4411 52.8967 29.0782L39.7278 37.9078C39.1217 36.8075 38.7911 35.5729 38.7911 34.231Z" fill="#CF726D"/>
<path d="M57.2074 43.6243H59.3012V38.0152L63.048 43.6243H65.4725L61.4777 37.6663C63.847 36.5659 65.5 34.2847 65.5 31.6009C65.5 27.8705 62.3317 24.8378 58.4747 24.8378H57.2074V43.6243ZM63.4062 31.6009C63.4062 33.9895 61.643 36.0292 59.3012 36.4317V26.8238C61.643 27.2264 63.4062 29.2124 63.4062 31.6009Z" fill="#CF726D"/>
</svg>

<svg xmlns="http://www.w3.org/2000/svg" width="100" height="70" fill="none" viewBox="0 0 90 45"><path fill="#CF726D" d="M3.09 18.787h2.094v-2.899L7.608 0H5.569l-.413 2.415-1.047 9.26-1.13-9.26L2.54 0H.5l2.59 15.888v2.899ZM10.083 0 7.879 18.787h2.039l.22-1.986h3.086l.248 1.986h2.038L13.306 0h-3.223Zm2.92 14.868h-2.617L11.68 2.254l1.322 12.614ZM21.53 16.264l.523 2.523h3.333V0h-2.093v2.228l.247 14.036L20.868 2.28 20.4 0h-3.334v18.787h2.094v-2.443l-.276-13.929 2.645 13.849ZM29.131 0l-2.204 18.787h2.039l.22-1.986h3.086l.248 1.986h2.038L32.355 0H29.13Zm2.92 14.868h-2.617L30.73 2.254l1.322 12.614ZM17.609 38.847c-1.46 1.96-3.802 3.22-6.502 3.22-4.49 0-8.045-3.515-8.045-7.836 0-4.32 3.554-7.837 8.045-7.837 2.645 0 4.959 1.208 6.419 3.087l1.598-1.208a10.313 10.313 0 0 0-8.017-3.81C5.514 24.462.968 28.836.968 34.23.968 39.625 5.514 44 11.107 44c3.36 0 6.309-1.557 8.155-3.972l-1.653-1.18ZM22.378 24.838l-2.204 18.786h2.039l.22-1.986h3.086l.248 1.986h2.038l-2.203-18.786h-3.224Zm2.92 14.868h-2.617l1.295-12.614L25.3 39.706ZM29.361 43.624h2.094v-2.496l-.137-6.011 3.801 8.507h2.177l-4.16-9.232 4.16-9.554h-2.149L31.29 33.72l.165-6.629v-2.254h-2.093v18.786Z"/><path fill="#CF726D" d="M47.332 42.068c-2.7 0-4.987-.966-6.447-2.523l14.85-9.984c-1.736-3.032-5.07-5.099-8.9-5.099-5.592 0-10.138 4.375-10.138 9.769S40.995 44 47.332 44c3.416 0 6.281-1.369 8.265-4.16l-1.653-1.18c-1.598 2.361-3.885 3.408-6.612 3.408Zm-8.54-7.837c0-4.32 3.553-7.837 8.044-7.837a8.11 8.11 0 0 1 6.06 2.684l-13.168 8.83a7.536 7.536 0 0 1-.937-3.677ZM57.207 43.624h2.094v-5.609l3.747 5.61h2.424l-3.994-5.959c2.369-1.1 4.022-3.381 4.022-6.065 0-3.73-3.168-6.763-7.025-6.763h-1.268v18.786Zm6.2-12.023c0 2.389-1.764 4.428-4.106 4.83v-9.607c2.342.402 4.105 2.388 4.105 4.777Z"/></svg>
